X:337
T:
R:polska
S:Efter klockaren O. Laugren i Alva.
O:Gotland, Alva
M:3/4
L:1/16
K:Dm
defg a2a2 a4|a2ba g2ag fed^c|defg a2a2a2f2|a2ba g2ag fed^c|
=c2f2f2f2 afdf|f2e2e2e2 egec|c2f2f2f2 afdf|f2e2e2e2 ege^c|d2de f2fg a2ag|
fed^c d4 D4::defg g2a2a2c'2|c'2c'a c'bab g4|gfed cdc=B c4|cdef gabg a4|
defg a2f2f2f2|a2ba g2ag fed^c|defg a2f2f2f2|a2ba g2ag fed^c|=c2f2f2f2 afdf|
f2e2e2e2 egec|c2f2f2f2 afdf|f2e2e2e2 egec|d2de f2fg a2ag|fed^c d4 D4:|

